;FLAVOR:Marlin
;TIME:7278
;Filament used: 10.8646m
;Layer height: 0.3
;Generated with Cura_SteamEngine 1.2.3
M140 S60
M104 S230
M109 S230
G28
G1 Z50.00 F400
G92 E0
G1 F200 E3
G92 E0
M132 X Y Z A
M907 X100 Y100 Z50 A100
;LAYER_COUNT:83
;LAYER:0
M107
M204 S2000
G0 F3600 X15.265 Y-30.586 Z0.3
;TYPE:SKIRT
G1 F1500 X20.004 Y-27.987 E0.26965
G1 X24.842 Y-25.68 E0.53706
G1 X29.835 Y-23.635 E0.80624
G1 X34.927 Y-21.88 E1.07495
G1 X40.133 Y-20.409 E1.34485
G1 X42.764 Y-19.784 E1.47976
G1 X45.32 Y-19.255 E1.60998
G1 X50.678 Y-18.379 E1.88084
G1 X56.033 Y-17.81 E2.14951
G1 X61.402 Y-17.547 E2.41769
G1 X66.783 Y-17.587 E2.68616
G1 X73.34 Y-18.034 E3.01405
G1 X73.629 Y-18.045 E3.02848
G1 X78.121 Y-18.081 E3.25259
G1 X78.636 Y-18.057 E3.27831
G1 X82.964 Y-17.625 E3.49531
G1 X83.471 Y-17.547 E3.5209
G1 X87.401 Y-16.724 E3.72122
G1 X87.906 Y-16.589 E3.7473
G1 X91.336 Y-15.47 E3.9273
G1 X91.826 Y-15.28 E3.95352
G1 X94.611 Y-14.02 E4.10602
G1 X95.072 Y-13.781 E4.13193
G1 X97.276 Y-12.48 E4.25962
G1 X97.711 Y-12.189 E4.28573
G1 X99.442 Y-10.894 E4.39358
G1 X99.845 Y-10.558 E4.41976
G1 X101.178 Y-9.312 E4.51079
G1 X101.617 Y-8.842 E4.54288
G1 X102.996 Y-7.154 E4.65162
G1 X103.283 Y-6.764 E4.67578
G1 X103.761 Y-6.041 E4.71902
G1 X104.01 Y-5.62 E4.74342
G1 X104.602 Y-4.489 E4.80711
G1 X104.86 Y-3.904 E4.83901
G1 X105.373 Y-2.494 E4.91386
G1 X105.542 Y-1.922 E4.94362
G1 X105.764 Y-.95 E4.99336
G1 X105.864 Y-.313 E5.02553
G1 X106 Y1.191 E5.10087
G1 X106.016 Y1.81 E5.13177
G1 X105.99 Y2.162 E5.14938
G1 X105.756 Y4.234 E5.2534
G1 X105.6 Y5.02 E5.29338
G1 X105.312 Y6.023 E5.34545
G1 X105.137 Y6.524 E5.37192
G1 X104.691 Y7.608 E5.4304
G1 X104.465 Y8.083 E5.45664
G1 X103.88 Y9.154 E5.51753
G1 X103.53 Y9.701 E5.54993
G1 X102.211 Y11.49 E5.66082
G1 X101.774 Y12.004 E5.69447
G1 X100.565 Y13.236 E5.78059
G1 X100.177 Y13.59 E5.80679
G1 X98.6 Y14.879 E5.90841
G1 X98.177 Y15.188 E5.93454
G1 X96.157 Y16.5 E6.05471
G1 X95.63 Y16.797 E6.08489
G1 X92.509 Y18.305 E6.25782
G1 X92.104 Y18.478 E6.2798
G1 X90.205 Y19.189 E6.38096
G1 X89.98 Y19.267 E6.39284
G1 X88.738 Y19.663 E6.45788
G1 X88.439 Y19.748 E6.47339
G1 X85.118 Y20.574 E6.64412
G1 X84.626 Y20.669 E6.66912
G1 X80.474 Y21.252 E6.8783
G1 X79.961 Y21.297 E6.90399
G1 X75.488 Y21.441 E7.12726
G1 X75.002 Y21.432 E7.15151
G1 X67.96 Y20.944 E7.50368
G1 X62.578 Y20.84 E7.77224
G1 X57.188 Y21.039 E8.04133
G1 X51.829 Y21.542 E8.30987
G1 X46.513 Y22.347 E8.57811
G1 X41.184 Y23.465 E8.84976
G1 X38.699 Y24.096 E8.97767
G1 X33.459 Y25.668 E9.25061
G1 X28.391 Y27.509 E9.51962
G1 X25.96 Y28.509 E9.65076
G1 X21.022 Y30.793 E9.9222
G1 X16.285 Y33.317 E10.18998
G1 X11.67 Y36.121 E10.45939
G1 X7.674 Y38.85 E10.70081
G1 X7.141 Y39.166 E10.73172
G1 X6.572 Y39.41 E10.76261
G1 X5.976 Y39.579 E10.79351
G1 X5.363 Y39.67 E10.82443
G1 X4.744 Y39.681 E10.85532
G1 X4.128 Y39.612 E10.88624
G1 X3.708 Y39.518 E10.90772
G1 X-0.006 Y38.509 E11.09972
G1 X-2.655 Y37.879 E11.23557
G1 X-5.211 Y37.35 E11.36579
G1 X-10.569 Y36.474 E11.63665
G1 X-15.922 Y35.905 E11.90522
G1 X-21.294 Y35.641 E12.17355
G1 X-26.691 Y35.681 E12.44282
G1 X-32.055 Y36.024 E12.71098
G1 X-37.389 Y36.671 E12.97904
G1 X-44.01 Y37.901 E13.31501
G1 X-48.205 Y38.766 E13.52871
G1 X-48.732 Y38.845 E13.55529
G1 X-52.514 Y39.195 E13.74478
G1 X-53.041 Y39.214 E13.77109
G1 X-56.903 Y39.146 E13.9638
G1 X-57.414 Y39.11 E13.98936
G1 X-61.1 Y38.649 E14.17468
G1 X-61.537 Y38.574 E14.1968
G1 X-63.988 Y38.034 E14.32202
G1 X-64.212 Y37.979 E14.33353
G1 X-65.469 Y37.638 E14.3985
G1 X-65.769 Y37.545 E14.41417
G1 X-68.921 Y36.464 E14.58042
G1 X-69.386 Y36.278 E14.6054
G1 X-72.709 Y34.735 E14.78819
G1 X-73.162 Y34.494 E14.81379
G1 X-76.407 Y32.541 E15.00274
G1 X-76.838 Y32.248 E15.02874
G1 X-79.856 Y29.952 E15.21793
G1 X-80.291 Y29.579 E15.24652
G1 X-83.413 Y26.553 E15.46343
G1 X-83.746 Y26.194 E15.48786
G1 X-85.891 Y23.642 E15.65418
G1 X-86.201 Y23.231 E15.67987
G1 X-88.334 Y20.057 E15.87065
G1 X-88.601 Y19.609 E15.89667
G1 X-90.365 Y16.245 E16.08618
G1 X-90.579 Y15.777 E16.11185
G1 X-91.957 Y12.282 E16.29928
G1 X-92.121 Y11.79 E16.32516
G1 X-93.12 Y8.146 E16.51366
G1 X-93.229 Y7.647 E16.53915
G1 X-93.82 Y4.011 E16.72293
G1 X-93.875 Y3.5 E16.74857
G1 X-94.079 Y-.271 E16.93698
G1 X-94.079 Y-.789 E16.96282
G1 X-93.874 Y-4.58 E17.15223
G1 X-93.817 Y-5.099 E17.17828
G1 X-93.201 Y-8.847 E17.36778
G1 X-93.074 Y-9.411 E17.39662
G1 X-91.854 Y-13.6 E17.61429
G1 X-91.695 Y-14.058 E17.63848
G1 X-90.455 Y-17.123 E17.80344
G1 X-90.243 Y-17.577 E17.82843
G1 X-88.512 Y-20.831 E18.01232
G1 X-88.247 Y-21.271 E18.03794
G1 X-86.127 Y-24.398 E18.22642
G1 X-85.813 Y-24.811 E18.25231
G1 X-83.364 Y-27.695 E18.44107
G1 X-83.001 Y-28.077 E18.46736
G1 X-80.168 Y-30.753 E18.66178
G1 X-79.764 Y-31.095 E18.68819
G1 X-76.726 Y-33.389 E18.87811
G1 X-76.293 Y-33.68 E18.90414
G1 X-73.021 Y-35.632 E19.09422
G1 X-72.562 Y-35.873 E19.12009
G1 X-69.148 Y-37.438 E19.30746
G1 X-68.666 Y-37.629 E19.33332
G1 X-65.05 Y-38.834 E19.52348
G1 X-64.558 Y-38.969 E19.54893
G1 X-60.983 Y-39.751 E19.73151
G1 X-60.476 Y-39.834 E19.75714
G1 X-56.705 Y-40.244 E19.94638
G1 X-56.186 Y-40.272 E19.97231
G1 X-52.411 Y-40.272 E20.16065
G1 X-51.893 Y-40.244 E20.18653
G1 X-48.126 Y-39.835 E20.37557
G1 X-47.63 Y-39.755 E20.40063
G1 X-44.624 Y-39.105 E20.55407
G1 X-44.338 Y-39.034 E20.56877
G1 X-38.945 Y-37.517 E20.84827
G1 X-33.687 Y-36.294 E21.1176
G1 X-28.39 Y-35.376 E21.38581
G1 X-23.04 Y-34.756 E21.6545
G1 X-17.655 Y-34.441 E21.92362
G1 X-12.278 Y-34.429 E22.19188
G1 X-6.903 Y-34.723 E22.46044
G1 X-1.544 Y-35.32 E22.72946
G1 X4.161 Y-36.292 E23.01818
G1 X4.777 Y-36.356 E23.04908
G1 X5.396 Y-36.341 E23.07997
G1 X6.008 Y-36.246 E23.11087
G1 X6.603 Y-36.073 E23.14179
G1 X7.17 Y-35.824 E23.17268
G1 X7.693 Y-35.511 E23.20309
G1 X10.684 Y-33.447 E23.38439
G1 X15.265 Y-30.586 E23.65385
G0 F3600 X15.067 Y-30.238
G1 F1500 X19.818 Y-27.633 E23.92417
G1 X24.682 Y-25.313 E24.19303
G1 X29.689 Y-23.263 E24.46295
G1 X34.814 Y-21.496 E24.73341
G1 X40.024 Y-20.025 E25.0035
G1 X42.663 Y-19.397 E25.13884
G1 X45.27 Y-18.857 E25.27166
G1 X50.625 Y-17.982 E25.54237
G1 X55.988 Y-17.412 E25.81143
G1 X61.403 Y-17.147 E26.08191
G1 X66.798 Y-17.187 E26.35108
G1 X73.368 Y-17.635 E26.67962
G1 X73.632 Y-17.645 E26.6928
G1 X78.124 Y-17.681 E26.91691
G1 X78.596 Y-17.659 E26.94049
G1 X82.924 Y-17.227 E27.15748
G1 X83.389 Y-17.156 E27.18095
G1 X87.319 Y-16.333 E27.38127
G1 X87.782 Y-16.209 E27.40519
G1 X91.212 Y-15.09 E27.58519
G1 X91.661 Y-14.916 E27.60921
G1 X94.446 Y-13.656 E27.76171
G1 X94.869 Y-13.436 E27.7855
G1 X97.073 Y-12.135 E27.91319
G1 X97.472 Y-11.869 E27.93711
G1 X99.203 Y-10.574 E28.04496
G1 X99.572 Y-10.265 E28.06897
G1 X100.905 Y-9.019 E28.16001
G1 X101.307 Y-8.589 E28.18937
G1 X102.686 Y-6.901 E28.29812
G1 X102.949 Y-6.544 E28.32024
G1 X103.427 Y-5.821 E28.36348
G1 X103.655 Y-5.434 E28.38589
G1 X104.247 Y-4.303 E28.44958
G1 X104.484 Y-3.767 E28.47882
G1 X104.997 Y-2.357 E28.55368
G1 X105.152 Y-1.833 E28.58094
G1 X105.374 Y-.861 E28.63068
G1 X105.466 Y-.277 E28.66017
G1 X105.602 Y1.227 E28.73552
G1 X105.616 Y1.82 E28.76511
G1 X105.592 Y2.117 E28.77997
G1 X105.358 Y4.189 E28.884
G1 X105.215 Y4.909 E28.92063
G1 X104.927 Y5.912 E28.97269
G1 X104.767 Y6.372 E28.99699
G1 X104.321 Y7.456 E29.05547
G1 X104.113 Y7.891 E29.07952
G1 X103.528 Y8.962 E29.14041
G1 X103.208 Y9.464 E29.17011
G1 X101.889 Y11.253 E29.281
G1 X101.488 Y11.724 E29.31186
G1 X100.279 Y12.956 E29.39797
G1 X99.924 Y13.281 E29.42199
G1 X98.347 Y14.57 E29.5236
G1 X97.959 Y14.853 E29.54756
G1 X95.939 Y16.165 E29.66773
G1 X95.456 Y16.437 E29.69538
G1 X92.335 Y17.945 E29.86832
G1 X91.964 Y18.104 E29.88845
G1 X90.065 Y18.815 E29.98962
G1 X89.859 Y18.886 E30.00049
G1 X88.617 Y19.282 E30.06552
G1 X88.342 Y19.36 E30.07979
G1 X85.021 Y20.186 E30.25052
G1 X84.571 Y20.273 E30.27339
G1 X80.419 Y20.856 E30.48256
G1 X79.949 Y20.897 E30.5061
G1 X75.476 Y21.041 E30.72937
G1 X75.03 Y21.032 E30.75163
G1 X67.997 Y20.545 E31.10335
G1 X62.572 Y20.439 E31.37405
G1 X57.169 Y20.639 E31.64379
G1 X51.768 Y21.147 E31.91444
G1 X46.442 Y21.952 E32.18317
G1 X41.123 Y23.069 E32.45433
G1 X38.556 Y23.721 E32.58646
G1 X33.345 Y25.284 E32.85788
G1 X28.25 Y27.135 E33.12833
G1 X25.8 Y28.143 E33.2605
G1 X20.845 Y30.434 E33.53285
G1 X16.081 Y32.972 E33.80215
G1 X11.458 Y35.782 E34.07206
G1 X7.448 Y38.52 E34.31431
G1 X6.937 Y38.82 E34.34387
G1 X6.39 Y39.049 E34.37345
G1 X5.817 Y39.203 E34.40306
G1 X5.229 Y39.278 E34.43263
G1 X4.636 Y39.274 E34.46221
G1 X3.813 Y39.132 E34.50388
G1 X0.101 Y38.123 E34.69579
G1 X-2.554 Y37.492 E34.83194
G1 X-5.161 Y36.952 E34.96477
G1 X-10.516 Y36.077 E35.23547
G1 X-15.877 Y35.508 E35.50443
G1 X-21.295 Y35.241 E35.77507
G1 X-26.702 Y35.281 E36.04483
G1 X-32.093 Y35.626 E36.31434
G1 X-37.447 Y36.275 E36.58341
G1 X-44.114 Y37.514 E36.92172
G1 X-48.286 Y38.374 E37.13424
G1 X-48.769 Y38.446 E37.1586
G1 X-52.551 Y38.796 E37.34809
G1 X-53.033 Y38.814 E37.37216
G1 X-56.895 Y38.746 E37.56486
G1 X-57.364 Y38.713 E37.58832
G1 X-61.05 Y38.252 E37.77365
G1 X-61.451 Y38.183 E37.79395
G1 X-63.902 Y37.643 E37.91916
G1 X-64.107 Y37.593 E37.92969
G1 X-65.364 Y37.252 E37.99466
G1 X-65.639 Y37.167 E38.00903
G1 X-68.791 Y36.086 E38.17527
G1 X-69.217 Y35.915 E38.19817
G1 X-72.54 Y34.372 E38.38096
G1 X-72.956 Y34.151 E38.40446
G1 X-76.201 Y32.198 E38.59341
G1 X-76.596 Y31.93 E38.61723
G1 X-79.614 Y29.634 E38.80641
G1 X-80.012 Y29.291 E38.83263
G1 X-83.134 Y26.265 E39.04954
G1 X-83.44 Y25.937 E39.07192
G1 X-85.585 Y23.385 E39.23824
G1 X-85.869 Y23.008 E39.26179
G1 X-88.002 Y19.834 E39.45258
G1 X-88.247 Y19.423 E39.47645
G1 X-90.011 Y16.059 E39.66595
G1 X-90.207 Y15.63 E39.68948
G1 X-91.585 Y12.135 E39.87691
G1 X-91.735 Y11.684 E39.90063
G1 X-92.734 Y8.04 E40.08913
G1 X-92.834 Y7.583 E40.11247
G1 X-93.425 Y3.947 E40.29625
G1 X-93.476 Y3.479 E40.31974
G1 X-93.68 Y-.292 E40.50815
G1 X-93.68 Y-.768 E40.5319
G1 X-93.475 Y-4.559 E40.72131
G1 X-93.423 Y-5.035 E40.7452
G1 X-92.807 Y-8.783 E40.9347
G1 X-92.689 Y-9.299 E40.9611
G1 X-91.469 Y-13.488 E41.17878
G1 X-91.324 Y-13.908 E41.20094
G1 X-90.084 Y-16.973 E41.3659
G1 X-89.89 Y-17.389 E41.3888
G1 X-88.159 Y-20.643 E41.57268
G1 X-87.916 Y-21.046 E41.59616
G1 X-85.796 Y-24.173 E41.78464
G1 X-85.508 Y-24.552 E41.80839
G1 X-83.059 Y-27.436 E41.99715
G1 X-82.726 Y-27.787 E42.02129
G1 X-79.893 Y-30.463 E42.21571
G1 X-79.523 Y-30.775 E42.23986
G1 X-76.485 Y-33.069 E42.42978
G1 X-76.088 Y-33.337 E42.45368
G1 X-72.816 Y-35.289 E42.64376
G1 X-72.396 Y-35.51 E42.66744
G1 X-68.982 Y-37.075 E42.85481
G1 X-68.539 Y-37.249 E42.87855
G1 X-64.923 Y-38.454 E43.06871
G1 X-64.472 Y-38.578 E43.09204
G1 X-60.897 Y-39.36 E43.27462
G1 X-60.433 Y-39.436 E43.29807
G1 X-56.662 Y-39.846 E43.48732
G1 X-56.186 Y-39.872 E43.5111
G1 X-52.411 Y-39.872 E43.69944
G1 X-51.936 Y-39.846 E43.72317
G1 X-48.169 Y-39.437 E43.91221
G1 X-47.714 Y-39.364 E43.9352
G1 X-44.708 Y-38.714 E44.08864
G1 X-44.446 Y-38.649 E44.10211
G1 X-39.052 Y-37.132 E44.38165
G1 X-33.757 Y-35.901 E44.65287
G1 X-28.451 Y-34.981 E44.92153
G1 X-23.058 Y-34.356 E45.19239
G1 X-17.68 Y-34.041 E45.46116
G1 X-12.257 Y-34.029 E45.73172
G1 X-6.874 Y-34.324 E46.00068
G1 X-1.501 Y-34.922 E46.2704
G1 X4.228 Y-35.898 E46.56033
G1 X4.818 Y-35.957 E46.58992
G1 X5.411 Y-35.938 E46.61952
G1 X5.995 Y-35.838 E46.64908
G1 X6.561 Y-35.661 E46.67866
G1 X7.098 Y-35.409 E46.70826
G1 X7.466 Y-35.181 E46.72985
G1 X10.451 Y-33.121 E46.9108
G1 X15.067 Y-30.238 E47.18232
G0 F3600 X14.875 Y-29.886
G1 F1500 X19.625 Y-27.282 E47.45257
G1 X24.516 Y-24.949 E47.72292
G1 X29.555 Y-22.886 E47.99457
G1 X34.691 Y-21.116 E48.2656
G1 X39.925 Y-19.637 E48.53695
G1 X42.587 Y-19.004 E48.67346
G1 X45.171 Y-18.469 E48.80511
G1 X50.573 Y-17.586 E49.07819
G1 X55.978 Y-17.012 E49.34936
G1 X61.387 Y-16.747 E49.61954
G1 X66.812 Y-16.787 E49.89021
G1 X73.395 Y-17.236 E50.2194
G1 X73.635 Y-17.245 E50.23138
G1 X78.127 Y-17.281 E50.45549
G1 X78.556 Y-17.261 E50.47692
G1 X82.884 Y-16.829 E50.69392
G1 X83.307 Y-16.764 E50.71527
G1 X87.237 Y-15.941 E50.91559
G1 X87.658 Y-15.829 E50.93732
G1 X91.088 Y-14.71 E51.11732
G1 X91.496 Y-14.551 E51.13917
G1 X94.281 Y-13.291 E51.29167
G1 X94.665 Y-13.092 E51.31325
G1 X96.869 Y-11.791 E51.44094
G1 X97.232 Y-11.549 E51.4627
G1 X98.963 Y-10.254 E51.57055
G1 X99.298 Y-9.973 E51.59237
G1 X100.631 Y-8.727 E51.6834
G1 X100.998 Y-8.336 E51.71016
G1 X102.377 Y-6.648 E51.8189
G1 X102.616 Y-6.323 E51.83903
G1 X103.094 Y-5.6 E51.88227
G1 X103.301 Y-5.249 E51.9026
G1 X103.893 Y-4.118 E51.96629
G1 X104.108 Y-3.631 E51.99284
G1 X104.621 Y-2.221 E52.0677
G1 X104.762 Y-1.744 E52.09252
G1 X104.984 Y-.772 E52.14226
G1 X105.068 Y-.241 E52.16908
G1 X105.204 Y1.263 E52.24442
G1 X105.195 Y2.072 E52.28478
G1 X104.961 Y4.144 E52.38881
G1 X104.831 Y4.799 E52.42213
G1 X104.543 Y5.802 E52.47419
G1 X104.397 Y6.22 E52.49628
G1 X103.951 Y7.304 E52.55476
G1 X103.762 Y7.699 E52.57661
G1 X103.177 Y8.77 E52.63749
G1 X102.887 Y9.227 E52.66449
G1 X101.568 Y11.016 E52.77538
G1 X101.203 Y11.444 E52.80345
G1 X99.994 Y12.676 E52.88956
G1 X99.67 Y12.971 E52.91142
G1 X98.093 Y14.26 E53.01304
G1 X97.741 Y14.518 E53.03481
G1 X95.721 Y15.83 E53.15498
G1 X95.282 Y16.077 E53.18011
G1 X92.161 Y17.585 E53.35304
G1 X91.824 Y17.729 E53.37133
G1 X89.925 Y18.44 E53.47249
G1 X89.737 Y18.505 E53.48242
G1 X88.495 Y18.901 E53.54745
G1 X88.245 Y18.972 E53.56042
G1 X84.924 Y19.798 E53.73115
G1 X84.515 Y19.877 E53.75193
G1 X80.363 Y20.46 E53.96111
G1 X79.936 Y20.497 E53.98249
G1 X75.463 Y20.641 E54.20577
G1 X75.058 Y20.633 E54.22598
G1 X68.012 Y20.145 E54.57835
G1 X62.565 Y20.039 E54.85015
G1 X57.135 Y20.24 E55.12124
G1 X51.74 Y20.747 E55.39158
G1 X46.372 Y21.559 E55.66244
G1 X41.017 Y22.683 E55.93542
G1 X38.455 Y23.333 E56.06729
G1 X33.22 Y24.904 E56.33997
G1 X28.102 Y26.763 E56.61163
G1 X25.64 Y27.776 E56.74445
G1 X20.667 Y30.075 E57.01779
G1 X15.878 Y32.627 E57.28852
G1 X11.242 Y35.445 E57.55919
G1 X7.223 Y38.189 E57.80197
G1 X6.734 Y38.474 E57.83021
G1 X6.211 Y38.688 E57.8584
G1 X5.662 Y38.825 E57.88663
G1 X5.1 Y38.884 E57.91482
G1 X4.535 Y38.863 E57.94303
G1 X3.918 Y38.746 E57.97436
G1 X0.202 Y37.736 E58.16648
G1 X-2.478 Y37.099 E58.30391
G1 X-5.062 Y36.564 E58.43556
G1 X-10.464 Y35.681 E58.70864
G1 X-15.868 Y35.107 E58.97977
G1 X-21.279 Y34.841 E59.25005
G1 X-26.713 Y34.881 E59.52116
G1 X-32.131 Y35.228 E59.79202
G1 X-37.505 Y35.879 E60.06209
G1 X-44.16 Y37.116 E60.3998
G1 X-48.366 Y37.983 E60.61405
G1 X-48.805 Y38.048 E60.63619
G1 X-52.587 Y38.398 E60.82568
G1 X-53.026 Y38.414 E60.84759
G1 X-56.888 Y38.346 E61.0403
G1 X-57.314 Y38.316 E61.0616
G1 X-61 Y37.855 E61.24693
G1 X-61.365 Y37.792 E61.26541
G1 X-63.816 Y37.252 E61.39063
G1 X-64.002 Y37.206 E61.40018
G1 X-65.259 Y36.865 E61.46516
G1 X-65.51 Y36.789 E61.47825
G1 X-68.662 Y35.708 E61.64449
G1 X-69.049 Y35.552 E61.66531
G1 X-72.372 Y34.009 E61.8481
G1 X-72.75 Y33.808 E61.86945
G1 X-75.995 Y31.855 E62.05841
G1 X-76.354 Y31.611 E62.08006
G1 X-79.372 Y29.315 E62.26925
G1 X-79.734 Y29.004 E62.29306
G1 X-82.856 Y25.978 E62.50997
G1 X-83.134 Y25.68 E62.53031
G1 X-85.279 Y23.128 E62.69663
G1 X-85.537 Y22.785 E62.71804
G1 X-87.67 Y19.611 E62.90883
G1 X-87.893 Y19.238 E62.93051
G1 X-89.657 Y15.874 E63.12001
G1 X-89.835 Y15.483 E63.14145
G1 X-91.213 Y11.988 E63.32888
G1 X-91.35 Y11.579 E63.3504
G1 X-92.349 Y7.935 E63.5389
G1 X-92.439 Y7.519 E63.56014
G1 X-93.03 Y3.883 E63.74392
G1 X-93.076 Y3.457 E63.7653
G1 X-93.28 Y-.314 E63.95371
G1 X-93.28 Y-.746 E63.97526
G1 X-93.075 Y-4.537 E64.16467
G1 X-93.028 Y-4.97 E64.1864
G1 X-92.412 Y-8.718 E64.3759
G1 X-92.305 Y-9.187 E64.3999
G1 X-91.085 Y-13.376 E64.61757
